X:1
T:Ricercare a 6 voci
T:J. S. Bach
T:Musical Offering BWV 1079
%%score { 1 | 2 } { 3 | 4 } { 5 | 6 }
L:1/8
M:2/2
K:Eb
V:1 treble nm="Harp"
V:2 alto1 
V:3 alto nm="Harp"
V:4 tenor 
V:5 tenor nm="Harp"
V:6 bass 
V:1
 z8 | z8 | z8 | z8 | z8 | z8 | z8 | z8 | z8 | z8 | z8 | z8 | z8 | z8 | z8 | z8 | z8 | z8 | z8 | %19
 z8 | z8 | z8 | z8 | z8 | z8 | z8 | z8 | z8 | z8 | z8 | z8 | z8 | z8 | z8 | z8 | z8 | c4 e4 | %37
 g4 a4 | =B4 z2 g2 | ^f4 =f4 | =e4 _e4- | e2 d2 _d2 c2 | =B2 G2 c2 f2 | e4 d4 | c6 Bc | %45
 d2 cd e2 d2 | c2 de dc=Bc | =Bd g4 fe | d8- | d4 c4- | c4 B4- | B4 =A4- | A2 G^F G2 =AB | c8- | %54
 c2 dc B2 =A2 | B4 c4- | c2 B2 g4- | g4 f2 e2 | d8- | d2 _d2 c4- | c4 B2 A2 | G6 =AB | %62
 c2 Bc d2 cd | e8 | f8 | e8- | e4 d4- | d4 c2 B2 | A4 a4- | a4 g4- | g4 f2 e2 | d2 cd e4- | %72
 e2 fg a4- | a4 g4 | c'8 | f2 b4 ag | f2 g2 a4- | a2 g2 z4 | z8 | z8 | z4 b4- | b2 a2 a4- | %82
 a2 g2 _g4 | f6 b2 | =e4 f4 | g4 =a4 | b8- | b4 =a4 | b2 f2 b4- | b2 a4 ba | g4 z4 | z8 | z8 | %93
 z2 g2 c'4- | c'2 b4 c'b | =a2 _a4 g2 | =a2 b=a g4- | g2 =ag ^f2 =a2 | d6 ^cd | =e6 ^fg | %100
 =a2 g^f g4- | g4 ^f4 | g4 g4 | ^f4 =f4- | f2 =ed =eg a2- | agf=e f2 g2 | c2 fe _dcB=A | %107
 Bc _d4 c2 | F2 z2 z4 | z8 | z4 e4 | f6 g2 | a2 e2 c'4 | =b4 _b4- | b2 a3 gf=e | f8 | z4 z2 a2- | %117
 agf=e f2 g2 | c8- | c2 Bc BAGA | G4 z2 g2- | g2 f4 =e2 | f4 f4 | d4 B4 | z4 e4 | c4 A4 | z8 | z8 | %128
 z8 | z8 | e4 g4 | a4 c'4 | d4 z2 b2 | =a4 _a4 | g4 _g4- | g2 f2 _f2 e2 | d2 B2 e2 a2 | g4 f4 | %138
 e2 g2 b2 e2 | a2 f2 _d2 ef | _g2 e2 c4- | ce_dc B4- | B2 e_d c2 B2 | =AG=AB c_dec | _de_dc Bc_dB | %145
 c6 B2 | c_gfe _d4- | de_dc _dB f2- | fe=dc B4- | B4 z ef_g | ce_dc B2 =A2 | B4 z4 | z8 | z8 | z8 | %155
 z d=ef gabg | a8- | a2 a2 g4- | g4 f2 e2 | _d8- | d4 c4 | f4 g4 | a8- | a4 g4 | a2 z2 z4 | %165
 z2 g4 fe | d4 =e4 | fgaf dagf | e4- edc=B | cBAG A4 | G4 z4 | z2 c2- cB=AG | d4- dcB=A | %173
 G2 z2 z4 | z8 | z8 | z edc B=AG^F | G2 g4 ^f2 | g2 z2 z4 | z8 | z8 | z8 | z2 f2 d2 g2 | %183
 c2 d=e f4- | f2 _ef B2 cd | e2 f/e/d/e/ f2 g/f/e/f/ | g2 z2 z4 | z8 | z4 z2 _d2- | d2 cB =A2 f2- | %190
 f2 d2 B2 e2 | =A2 =Bc d2 _d2- | d2 c4 _B2- | B2 AG A2 f2 | d2 g2 c2 d=e | f6 ed | e2 =B2 c2 z2 | %197
 z2 e2 c2 f2- | f2 gf e4- | e2 e2 d4- | d2 _d2 c4- | c2 c2 =B2 c2 | =d2 =B2 c4- | c4 =B4 | c8- | %205
 c8 |] %206
V:2
 z8 | z8 | z8 | z8 | z8 | z8 | z8 | z8 | G4 B4 | c4 e4 | ^F4 z2 d2 | ^c4 =c4 | =B4 _B4- | %13
 B2 =A2 _A2 G2 | ^F2 D2 G2 c2 | B4 =A4 | G2 _AG/F/ G2 c2 | B2 e2 c2 f2- | f2 ed e4- | %19
 e2 d2 =A2 =B2 | c2 G2 z2 cB | =AG F2 z2 _A2 | G3 F EDC=B, | C2 c2 F4- | F2 E2 z2 B2 | %25
 e2 dc =B2 c2 | d6 =ef | =e2 ^f2 g2 =a2 | d6 _ed | c8- | c2 ^F2 G2 =A2 | B=A G4 ^F2 | G4 z4 | %33
 z2 F2 f4- | f2 e4 dc | d6 ed | c4 z cBA | G2 c4 d2- | d2 gf edc_B | =A2 =Bc d4- | d2 c=B c4- | %41
 cB _A4 F2 | G2 z2 z2 c=B | c6 BA | G2 FG A2 GA | B8 | A8 | G3 =B c4- | c4 _B4- | B6 =AG | %50
 =A6 G^F | G6 ^F=E | ^F2 D2 G4- | G2 =AG ^F2 G2 | =A4- A G2 ^F | G4 =A4 | D4 z4 | z4 c4- | c4 B4- | %59
 B4 A2 G2 | F8- | F4 E2 FG | F4 B4- | B2 =B2 c4 | d8- | d4 c4- | c4 B2 _A2 | G8- | G2 F2 f4- | %69
 f4 e2 _d2 | c8 | B8 | c6 de | f4 e4- | e2 fg f2 e2 | d4 e4- | e4 d4 | e4 z4 | z8 | z4 e4- | %80
 e2 d2 _d4- | d2 c2 _c4 | B6 e2- | e2 dc B4 | c6 Bc | _d4 c2 _de | f6 ef | _g4 f4- | f6 ed | %89
 c4 z4 | c4 e4 | g2 d2 g4- | g2 f4 gf | e2 e4 fe | d2 g3 fed | c2 f2 B2 c2- | c2 dc B2 G2 | %97
 =e4 z2 =A2- | A2 G^F G2 z2 | z8 | z2 =A2 B2 G=A | Bc d6- | d2 G2 e4- | edc=B c2 d2 | G3 B AGF=E | %105
 FG A4 G2 | F2 z2 z4 | z8 | z4 z2 B2 | c6 d2 | e2 B2 e4 | =d4 _d4- | d2 c_d eg a2- | agf=e f2 g2 | %114
 c4 z4 | z2 c4 BA | GA B2- Bgf=e | fg a4 g2- | g2 f3 _e_dc | _d8 | c8- | c2 _d4 c2- | c2 c2 A2 F2 | %123
 A4 z4 | z2 B2 G2 E2 | _G4 E4- | E4 z2 c2- | cFG=A Bc_dB | e8- | eABc _def_d | B3 c _dc B2 | %131
 A2 e_d e2 a2- | ac'ba gfed | c_gfe dcBc | _d_fe_d cBAB | _c_d_cB A_GF_G | A_cBA GFED | E2 e4 dc | %138
 _d6 cB | _c6 B=A | B6 =A2 | f6 A2 | G6 e2- | e2 c2 F4- | F2 f4 =e2 | e2 =d2 _d4 | c4- ccB=A | %147
 B4 z2 z c | F4- F =E2 F | GF=EF _G4 | F4- FFEF | _GA_GF EF_GE | F2 z2 z4 | z C_DE FAGF | c8 | z8 | %156
 z cd=e f4- | f4 e2 _d2 | c8- | c2 c2 B4- | B4 A4 | _d8 | e6 =d2 | e8- | e2 e4 _dc | B2 z2 z4 | %166
 z8 | z8 | z8 | z8 | G4 =B4 | c4 e4 | ^F4 z2 d2 | ^c4 =c4 | =B4 _B4- | B2 =A2 _A2 G2 | %176
 ^F2 D2 G2 c2 | B4 =A4 | G2 d2 B2 e2 | =A2 =Bc d4 | G2 =A=B c4 | =B4 _B4 | =A4 _A2 G2 | G4 F2 G=A | %184
 B4 F4 | c4 z2 B2- | B2 _AB c2 _dc | B6 F2 | =E2 c4 B_A | G2 c2 F2 G=A | B4 z4 | z2 D4 G_A | %192
 B2 A4 G2- | G2 c4 dc | =B2 c2 z2 _A_B | c4- cdc=B | c2 F2 G2 z2 | z4 z2 A2 | G2 d4 c=B | c6 f2 | %200
 g2 _B4 B2 | =A2 _A4 A2 | G6 A2 | G4 G4 | G8- | G8 |] %206
V:3
 C4 E4 | G4 A4 | =B,4 z2 G2 | ^F4 =F4 | =E4 _E4- | E2 D2 _D2 C2 | =B,2 G,2 C2 F2 | E4 D4 | %8
 C2 ED/C/ D2 G2 | E2 A2 G2 c2- | c2 B=A B4- | B2 =A2 =E2 ^F2 | G2 D2 z2 GF | ED C2 z2 E2 | %14
 D3 C B,2 =A,2 | G,2 G2 C2 D2 | E4 z2 E2 | D2 G2 E2 A2 | G2 G,2 C2 B,2 | =A,4 D4 | G,2 GA GFED | %21
 C2 D=E F4- | F2 =B,2 C2 A,2 | G,4 =A,2 =B,2 | C2 c2 FE D2 | G2 ^F2 G4 | =A2 G^F G4- | %27
 G2 =A2 B2 =A2- | A2 G^F G4- | G2 =AG ^F2 G2 | =A4 D2 =E^F | GFED E2 DC | B,2 G,2 G4- | G2 FG A4 | %34
 G6 FE | F6 GF | E2 FE/D/ C2 z2 | z2 G4 FE | D2 =B,2 G2 z2 | z4 z2 G2- | G2 G4 FG | AG F4 A2 | %42
 D2 C=B, C4 | G3 ^F G4 | C8 | B,4 z4 | z4 F3 E | D4 G4- | G2 D2 G2 F2 | E4 z4 | z8 | z8 | %52
 z2 D4 CD | E8 | D6 C2 | D2 CD E2 DC | G4 B4- | B4 =A4- | A4 G2 F2 | E8- | E4 D4- | D4 C4- | %62
 C4 F4 | G3 F E2 FG | A4 G4- | G6 AG | F8- | F4 E4- | E4 D4 | B8- | B4 A2 G2 | F4 G2 FG | A8 | %73
 z2 B4 c_d | c8 | B8- | B8- | B4 z4 | F6 B2 | E6 A2 | G2 FE F2 G2 | E2 F_G F2 E2 | D4 E4 | F6 =EF | %84
 G2 FG A4 | B4 z4 | z2 B4 c_d | e6 dc | d4 z4 | z8 | z2 G2 c4- | c2 B4 cB | A3 G A2 BA | G2 z2 z4 | %94
 z8 | z8 | z8 | z8 | z2 D2 G4- | G2 =AB c2 d_e | d6 e2 | d2 G2 =AB c2- | c2 B2 z4 | z8 | z4 z2 C2 | %105
 D6 =E2 | F2 C2 F4 | =E4 _E4- | E2 DC DF _G2- | GFED E2 F2 | B,2 e_d _cBAG | AB _c4 B2 | A2 z2 z4 | %113
 z8 | F4 A4 | c4 _d4 | =E4 z2 c2 | =B4 _B4 | =A4 _A4- | A2 G2 _G2 F2 | =E2 C2 F2 B2 | A4 G4 | %122
 F4 z4 | z2 F2 D2 B,2 | _D4 z4 | z2 E2 C2 A,2 | C4 z4 | z8 | z EFG ABcA | F8 | C2 G2 B2 _d2 | %131
 e2 A2 z4 | z8 | z8 | z8 | z8 | z8 | z8 | z8 | z8 | z8 | z8 | z8 | z8 | z8 | z8 | z8 | z8 | z8 | %149
 z8 | z8 | z8 | z cBA GABG | A4 z4 | z cBA GF=EG | C2 z2 z4 | z4 z e_dc | B8- | B2 B2 A4- | %159
 A4 G2 F2 | E6 F_G | F2 GA B4 | c2 B2 A3 B | _c2 _d4 =cB | c2 c4 BA | G2 B4 AG | F4 G4 | %167
 B,2 c2 =B4 | c_BAG F2 A2 | G4- GGFE | DC=B,=A, G,2 D2 | C2 E2 G2 z2 | z2 D2 G4- | GB=AG =A4- | %174
 A2 G^F G3 =F | ED E2 C2 z2 | z8 | z2 d2 e2 dc | B2 z2 G4 | ^F4 =F4 | =E4 z2 _E2 | D2 G2 C2 D=E | %182
 F2 C2 DC D2 | G,4 =A,2 F,2 | F4 z4 | z2 =A2 F2 B2 | E2 FG _A4- | A2 GF G4- | G2 F=E F2 z2 | z8 | %190
 z2 F2 D2 G2 | C2 DE F2 =EF | G2 C2 F4 | =E2 FG F4 | G6 FG | A6 GF | G2 D2 C2 z2 | z8 | z8 | z8 | %200
 z4 z2 E2 | C2 F4 E2 | D4 E2 F2 | E4 D4 | C8- | C8 |] %206
V:4
 z8 | z8 | z8 | z8 | z8 | z8 | z8 | z8 | z8 | z8 | z8 | z8 | z8 | z8 | z8 | z8 | z8 | z8 | z8 | %19
 z8 | z8 | z8 | z8 | z8 | G,4 B,4 | C4 E4 | ^F,4 z2 D2 | ^C4 =C4 | =B,4 _B,4- | B,2 =A,2 _A,2 G,2 | %30
 ^F,2 D,2 G,2 C2 | B,4 =A,4 | G,2 C4 B,2 | =A,2 D4 C2 | =B,2 CD C4- | C2 =B,=A, =B,4 | %36
 C2 DC/=B,/ C4- | C2 E2 C2 F2- | F2 ED E4- | E2 D2 =A,2 =B,2 | C2 G,2 C4- | C2 DE F2 A,2 | %42
 G,6 F,2 | G,2 C2 D2 =EF | =E2 D=E F4- | F2 EF G3 F | EC=B,C D4 | G,8- | G,8- | G,2 =A,B, C2 E2 | %50
 D8 | =E2 _E4 DC | D2 =B,2 G,4- | G,2 ^F,2 z4 | z4 z2 =A,2- | A,2 G,4 ^F,2 | G,2 D,2 E,4- | %57
 E,2 =E,2 F,4- | F,2 ^F,2 G,4- | G,2 G,2 A,4- | A,2 =A,2 B,4- | B,2 =B,2 C2 _B,2 | =A,4 B,2 _A,2 | %63
 G,4 A,2 G,2 | F,2 E,F, G,4- | G,2 G,2 A,4- | A,2 =A,2 B,4- | B,2 =B,2 C4- | C2 C2 D4- | %69
 D2 D2 E4- | E2 E2 F4- | F4 E2 D2 | C8 | B,8 | A,8- | A,4 G,2 A,2 | B,8 | z4 E4- | E2 D2 _D4- | %79
 D2 C2 _C4 | B,6 E2 | A,6 F,2 | B,8- | B,2 C2 _D4 | C6 _DC | B,4 C4 | B,8 | C8 | B,4 z4 | %89
 z2 C2 F4- | F2 E4 DC | D6 E_D | C3 =B, C2 D2 | E2 z2 z4 | B,4 D4 | E2 z2 z2 G,2 | D2 =A,2 B,4- | %97
 B,4 =A,2 G,^F, | G,4- G,^F,G,B, | =E,4 z4 | z2 =A,2 D,2 G,2- | G,=A,B,G, D4 | z4 z2 G,2 | %103
 =A,6 =B,2 | C2 G,2 C4 | =B,4 _B,4- | B,2 =A,G, A,C _D2- | DCB,=A, B,2 C2- | C2 B,A, _G,F,E,D, | %109
 E,F, _G,4 F,2 | E,8- | E,6 B,,2 | C,2 A,,2 A,2 z2 | z4 z2 C2- | CB,C_D CB,A,G, | A,6 G,F, | %116
 C6 F,G, | A,2 z2 z2 z G, | =A,B, C4 F2- | F2 B,2 z4 | z2 G2 A2 G2 | C3 B,/A,/ B,4- | B,2 A,2 z4 | %123
 z8 | z8 | z8 | z G,=A,B, C_DEC | _D8- | D2 CB, A,2 z2 | z8 | z8 | z8 | z8 | z8 | z8 | z8 | z8 | %137
 z8 | z8 | z8 | z8 | z8 | z8 | z8 | B,4 _D4 | F4 _G4 | =A,4 z2 F2 | =E4 _E4 | D4 _D4- | %149
 D2 C2 _C2 B,2 | =A,2 F,2 B,2 E2 | _D4 C4 | B,4 C4- | C6 B,2 | A,2 G,F, G,4- | G,2 F,4 =E,2 | %156
 F,2 C,2 _D,4- | D,=D,C,D, E,4- | E,=E,D,=E, F,4- | F,F,=E,F, G,4- | G,G,F,G, A,4- | A,4 G,2 A,B, | %162
 E,4 A,,4 | E,8- | E,4 z4 | E,4 G,4 | B,CDB, G,_DCB, | C2 F4 ED | C3 B, A,2 F2 | C4- C_EDC | %170
 =B,CDE FG_AF | G2 z2 z4 | z8 | z4 z G^F=E | DC=B,=A, G,2 _B,2 | C4- C^F,G,=A, | %176
 B,2 =A,2 G,2 =A,2 | B,2 z2 z2 D2 | D2 z2 z2 B,2 | C2 DE DC D2- | D2 C2 z4 | z4 z2 G,2 | %182
 =A,4 =B,4 | C6 B,C | F,2 G,=A, B,4 | =A,4 _A,4 | G,2 z2 z4 | z8 | z2 C2 A,2 _D2 | G,2 A,B, C4 | %190
 B,6 C=D | E2 D2 z2 B,2- | B,2 F2 z2 _D2 | C4 z2 D2- | D2 C=B, C4- | C4 z4 | z4 z2 E2 | D2 G4 F2 | %198
 G2 z2 z4 | z2 C2 D2 =A,2 | =B,2 G,4 C2 | F,2 _A,4 E,2 | G,2 F,2 E,2 D,2 | E,F, G,6 | G,8- | G,8 |] %206
V:5
 z8 | z8 | z8 | z8 | z8 | z8 | z8 | z8 | z8 | z8 | z8 | z8 | z8 | z8 | z8 | z8 | C,4 E,4 | %17
 G,4 A,4 | =B,,4 z2 G,2 | ^F,4 =F,4 | =E,4 _E,4- | E,2 D,2 _D,2 C,2 | =B,,2 G,,2 C,2 F,2 | %23
 E,4 D,4 | C,2 E,D,/C,/ D,2 G,2 | E,2 A,2 G,2 C2- | C2 B,=A, B,4- | B,2 =A,2 =E,2 ^F,2 | %28
 G,2 D,2 z2 G,=F, | E,D, C,2 z2 E,2 | D,3 C, B,,2 =A,,2 | G,,2 G,2 C,2 D,2 | E,4 =E,4 | F,6 E,D, | %34
 G,8- | G,8 | A,6 G,F, | E,4 F,4 | G,4 C2 =A,2 | D2 D,4 G,2 | C2 C,4 D,E, | F,8- | %42
 F,2 E,D, E,2 A,2 | G,2 B,=A, B,4- | B,4 _A,4- | A,4 G,4- | G,4 F,4- | F,4 E,2 D,C, | D,8 | %49
 E,4 G,4 | D,2 =E,^F, G,4- | G,2 ^F,G, =A,4 | D,6 E,D, | C,4 z4 | z2 D,4 E,2 | D,2 E,D, C,4 | %56
 D,4 z2 B,,2 | C,8 | D,8 | E,8 | F,8 | G,6 C,2 | F,8 | E,8 | D,6 C,D, | E,6 D,E, | F,6 E,F, | %67
 G,6 F,G, | A,6 G,A, | B,6 A,B, | C4 F,4 | B,8 | A,6 G,2 | F,2 E,F, G,4- | G,2 C,2 F,4- | F,4 E,4 | %76
 F,8 | E,4 z4 | z8 | z8 | z8 | z8 | z8 | z4 B,4- | B,2 =A,2 _A,4 | G,4 _G,4 | F,8 | E,2 D,E, F,4- | %88
 F,4 z4 | F,4 A,4 | C3 B, A,G, A,2 | G,3 F, E,4 | F,G, A,4 F,2 | G,4 z4 | G,4 B,4 | C4 E4 | %96
 ^F,4 z2 D2 | ^C4 =C4 | =B,4 _B,4- | B,2 =A,2 _A,2 G,2 | ^F,2 D,2 G,2 C2 | B,4 =A,4 | G,4 z4 | z8 | %104
 z8 | z8 | z4 F,4 | G,6 =A,2 | B,2 F,2 B,4 | =A,4 _A,4- | A,2 G,F, G,B, _C2- | CB,A,G, A,2 B,2 | %112
 E,2 A,B, A,G,F,=E, | F,G, A,4 G,2 | F,4 z4 | z8 | z2 B,A, G,2 A,G, | F,=E, F,4 C2- | %118
 C_DCB, C2 A,2 | B,C_DE _D2 B,2 | C8- | C2 F,2 G,2 C2- | C2 z2 z4 | z C,D,E, F,G,A,F, | G,2 z2 z4 | %125
 z B,,C,_D, E,F,_G,E, | F,8- | F,4 G,4- | G,2 E,4 A,2- | A,F,G,A, B,C_DB, | G,2 E,2 z4 | z8 | z8 | %133
 z8 | z8 | z8 | z8 | z8 | z8 | z8 | z8 | z8 | z8 | F,4 =A,4 | B,2 _A,2 G,4 | =A,F,G,=A, B,C_DB, | %146
 F2 C2 FE_DC | B,CB,=A, B,2 C2- | C2 F,2 B,2 A,2 | G,4 z2 B,2 | C2 z2 z4 | z2 B,4 A,2- | %152
 A,2 G,F, G,4- | G,4 F,4- | F,4 =E,2 z2 | z8 | z4 z2 A,,2 | B,,4- B,,B,,A,,B,, | C,4- C,C,B,,C, | %159
 _D,4- D,_D,C,_D, | E,8 | _D,8 | C,4 _C,4- | C,2 B,,A,, B,,4 | A,,4 C,4 | E,4 z4 | z2 B,4 A,G, | %167
 A,2 F,2 G,4 | A,G, F,4 E,D, | E,2 =E,2 F,2 F2- | FEDC D2 z2 | z2 G,4 =A,B, | =A,4 D,2 z2 | z8 | %174
 z4 z F,E,D, | C,3 D, E,4 | D,2 ^F,2 G,2 z2 | z4 z2 =A,2 | B,2 z2 z2 G,2 | =A,4 =B,4 | %180
 C2 C,D, _E,C, A,2- | A,2 G,F, =E,2 C,2 | F,2 z2 F,4 | =E,4 _E,4 | D,2 C,2 D,2 B,,2 | %185
 C,2 D,E, D,C, D,2 | E,6 A,2 | F,2 B,2 E,2 F,G, | A,2 G,2 F,2 A,2 | B,2 C_D C2 =A,2 | %190
 F,2 G,=A, B,2 =A,B, | C2 =A,2 _A,2 B,A, | G,2 A,2 F,2 B,2 | G,4 z2 A,2 | G,4 z4 | z8 | %196
 z2 A,2 G,2 C2- | C2 =B,2 C4 | z2 =B,2 C2 G,2 | =A,6 D2 | G,2 _B,2 C2 G,2 | =A,2 F,4 _A,2 | %202
 D,4 C,4- | C,4 D,=E, F,2 | =E,8- | E,8 |] %206
V:6
 z8 | z8 | z8 | z8 | z8 | z8 | z8 | z8 | z8 | z8 | z8 | z8 | z8 | z8 | z8 | z8 | z8 | z8 | z8 | %19
 z8 | z8 | z8 | z8 | z8 | z8 | z8 | z8 | z8 | z8 | z8 | z8 | z8 | z8 | z8 | z8 | z8 | z8 | z8 | %38
 z8 | z8 | z8 | z8 | z8 | z8 | z8 | z8 | z8 | z8 | G,,4 B,,4 | C,4 E,4 | ^F,,4 z2 D,2 | ^C,4 =C,4 | %52
 =B,,4 _B,,4- | B,,2 =A,,2 _A,,2 G,,2 | ^F,,2 D,,2 G,,2 C,2 | B,,4 =A,,4 | G,,8 | =A,,8 | B,,8 | %59
 C,8 | D,8 | E,8- | E,4 D,4- | D,4 C,4- | C,4 =B,,4 | C,8 | D,8 | E,8 | F,8 | G,8 | A,8- | %71
 A,4 G,4- | G,4 F,2 E,2 | D,4 E,4 | A,,8 | B,,8- | B,,8 | E,,4 z4 | z8 | z8 | z8 | z8 | z8 | z8 | %84
 z4 F,4- | F,2 =E,2 _E,4- | E,2 D,2 _D,4 | C,4 F,4 | B,,4 D,4 | F,4 z4 | z8 | z8 | z8 | C,4 E,4 | %94
 G,8- | G,2 F,2 E,4 | D,8- | D,8- | D,6 =E,D, | ^C,4 =C,4- | C,4 B,,2 C,2 | D,8 | G,,4 z4 | z8 | %104
 z8 | z8 | z8 | z8 | z8 | z8 | z8 | z8 | z4 C,4 | D,6 =E,2 | F,8- | F,_E,_D,C, B,,2 B,2- | %116
 B,A,G,F, =E,2 F,2 | D,6 =E,2 | F,3 G, A,2 F,2 | B,8- | B,G,CB, A,G,F,=E, | F,E,_D,C, B,,2 C,2 | %122
 F,G,A,G, F,E,D,C, | B,,8 | z A,G,F, E,_D,C,B,, | A,,8 | =A,,2 C,2 =A,,2 F,,2 | %127
 B,,2 _D,2 B,,2 G,,2 | C,2 E,2 C,2 A,,2 | _D,8- | D,E,_D,C, B,,A,,G,,B,, | %131
 C,_D,C,B,, A,,G,,F,,A,, | B,,,B,,C,D, E,F, G,2- | G,C,D,E, F,E,D,F, | B,,2 C,_D, E,_D,C,E, | %135
 A,,2 A,G, A,2 _C2 | B,8- | B,E,F,G, A,=CB,A, | G,F,E,F, G,B,A,_G, | F,E,_D,E, F,A,_G,F, | %140
 E,_D,C,_D, E,_G,F,E, | _D,C,B,,C, _D,E,F,=D, | E,_D,C,_D, E,F,_G,E, | F,8- | F,8- | F,8- | %146
 F,4 z2 F,2 | =G,6 =A,2 | B,2 _A,2 G,2 F,2 | =E,4 _E,4- | E,2 F,E, _D,2 C,2 | B,,4 C,4 | %152
 =D,2 E,4 =E,2 | F,2 E,2 _D,4 | C,6 B,,2 | A,,4 G,,4 | F,,8 | G,,8 | A,,8 | B,,8 | C,8- | %161
 C,4 B,,4 | A,,2 G,,2 F,,4 | E,,8 | A,,4 z4 | z8 | z8 | z8 | z8 | z8 | z2 G,2- G,F,E,D, | %171
 E,D,C,=B,, C,4- | C,E,D,C, B,,=A,,G,,F,, | =E,,2 =E,2 ^F,2 D,2 | G,4 G,,4 | =A,,B,, C,4 B,,C, | %176
 D,4 E,4- | E,D,C,B,, C,2 D,2 | G,2 z2 z4 | z8 | z8 | z8 | z8 | z8 | z8 | z8 | z4 E,4 | D,4 _D,4 | %188
 C,4 F,4 | =E,4 _E,4 | D,4 G,4 | ^F,4 =F,4 | =E,2 F,2 D,2 G,2 | C,2 D,=E, F,4- | F,2 _E,2 A,4- | %195
 A,2 G,F, C4 | C,4 E,4 | G,4 A,4 | =B,,4 z2 G,2 | ^F,4 =F,4 | =E,4 _E,4- | E,2 D,2 _D,2 C,2 | %202
 =B,,2 G,,2 C,2 F,,2 | G,,4 G,,4 | C,8- | C,8 |] %206

